svg/color/europ.svg

<?xml version="1.0" encoding="UTF-8"?> <svg xmlns="http://www.w3.org/2000/svg" id="Layer_1" viewBox="0 0 1920 1080"><path d="M886.8,590l-26.8,100h300v-193.92c0-58.59-47.49-106.08-106.08-106.08h-167.13l-26.8,100h160.71c21.7,0,39.29,17.59,39.29,39.29v60.71h-173.21ZM816.65,790c-31.29,0-56.65-28.64-56.65-68.59v-362.82c0-39.95,25.36-68.59,56.65-68.59h416.56l26.8-100h-442.53c-86.97,0-157.47,70.47-157.47,170.85v358.3c0,100.38,70.5,170.85,157.47,170.85h442.53l-26.8-100h-416.56Z"></path></svg>

<svg xmlns="http://www.w3.org/2000/svg" viewBox="0 0 1920 1080"><path d="M886.8 590 860 690h300V496.08c0-58.59-47.49-106.08-106.08-106.08H886.79l-26.8 100h160.71c21.7 0 39.29 17.59 39.29 39.29V590H886.78Zm-70.15 200c-31.29 0-56.65-28.64-56.65-68.59V358.59c0-39.95 25.36-68.59 56.65-68.59h416.56l26.8-100H817.48c-86.97 0-157.47 70.47-157.47 170.85v358.3c0 100.38 70.5 170.85 157.47 170.85h442.53l-26.8-100z"/></svg>
